src/lib/packages/icons/src/assets/line/bus.svg

<svg xmlns="http://www.w3.org/2000/svg" width="24" height="24" fill="none"><path fill="currentColor" d="M16 2.25H8C5.582 2.25 4.25 3.582 4.25 6v11c0 1.746.704 2.916 2 3.437V21a.75.75 0 0 0 1.5 0v-.268c.085.003.162.018.25.018h8c.088 0 .165-.015.25-.018V21a.75.75 0 0 0 1.5 0v-.563c1.296-.521 2-1.69 2-3.437V6c0-2.418-1.332-3.75-3.75-3.75Zm-8 1.5h8c1.577 0 2.25.673 2.25 2.25v7.25H5.75V6c0-1.577.673-2.25 2.25-2.25Zm8 15.5H8c-1.577 0-2.25-.673-2.25-2.25v-2.25h12.5V17c0 1.577-.673 2.25-2.25 2.25ZM10.25 6a.75.75 0 0 1 .75-.75h2a.75.75 0 0 1 0 1.5h-2a.75.75 0 0 1-.75-.75Zm5.77 11a1 1 0 0 1-1 1 1.005 1.005 0 0 1-1.005-1c0-.552.442-1 .995-1h.01a1 1 0 0 1 1 1Zm-6 0a1 1 0 0 1-1 1 1.005 1.005 0 0 1-1.005-1c0-.552.442-1 .995-1h.01a1 1 0 0 1 1 1Zm11.73-7v3a.75.75 0 0 1-1.5 0v-3a.75.75 0 0 1 1.5 0Zm-18 0v3a.75.75 0 0 1-1.5 0v-3a.75.75 0 0 1 1.5 0Z"/></svg>

<svg width="24" height="24" viewBox="0 0 24 24" fill="none" xmlns="http://www.w3.org/2000/svg">
<path d="M16 2.25H8C5.582 2.25 4.25 3.582 4.25 6V17C4.25 18.746 4.954 19.916 6.25 20.437V21C6.25 21.414 6.586 21.75 7 21.75C7.414 21.75 7.75 21.414 7.75 21V20.732C7.835 20.735 7.912 20.75 8 20.75H16C16.088 20.75 16.165 20.735 16.25 20.732V21C16.25 21.414 16.586 21.75 17 21.75C17.414 21.75 17.75 21.414 17.75 21V20.437C19.046 19.916 19.75 18.747 19.75 17V6C19.75 3.582 18.418 2.25 16 2.25ZM8 3.75H16C17.577 3.75 18.25 4.423 18.25 6V13.25H5.75V6C5.75 4.423 6.423 3.75 8 3.75ZM16 19.25H8C6.423 19.25 5.75 18.577 5.75 17V14.75H18.25V17C18.25 18.577 17.577 19.25 16 19.25ZM10.25 6C10.25 5.586 10.586 5.25 11 5.25H13C13.414 5.25 13.75 5.586 13.75 6C13.75 6.414 13.414 6.75 13 6.75H11C10.586 6.75 10.25 6.414 10.25 6ZM16.02 17C16.02 17.552 15.572 18 15.02 18C14.468 18 14.015 17.552 14.015 17C14.015 16.448 14.457 16 15.01 16H15.02C15.572 16 16.02 16.448 16.02 17ZM10.02 17C10.02 17.552 9.57199 18 9.01999 18C8.46799 18 8.01501 17.552 8.01501 17C8.01501 16.448 8.45701 16 9.01001 16H9.01999C9.57199 16 10.02 16.448 10.02 17ZM21.75 10V13C21.75 13.414 21.414 13.75 21 13.75C20.586 13.75 20.25 13.414 20.25 13V10C20.25 9.586 20.586 9.25 21 9.25C21.414 9.25 21.75 9.586 21.75 10ZM3.75 10V13C3.75 13.414 3.414 13.75 3 13.75C2.586 13.75 2.25 13.414 2.25 13V10C2.25 9.586 2.586 9.25 3 9.25C3.414 9.25 3.75 9.586 3.75 10Z" fill="currentColor"/>
</svg>
